X:195
T:Knister, knaster, knaster
R:sl\"angpolska
H:efter Konrad Hellqvist, Finsp{\aa}ng, f\"odd 1864 i Mell\"osa, S\"ormland
A:\"Osterg\"otland, S\"ormland
B:SvL \"Ogl 17
Z:id:hn-sp-195
M:3/4
L:1/16
K:Bb
B3c d2B2 d2B2 | d2de f2d2 f2d2 |
w:Knis-ter knas-ter knas-ter, k\"ar-ing-en stek-te pl{\aa}s-ter
w:Ben-et te {\aa} svi-da, gum-man te {\aa} gni-da,
f2f2 b4 f4 | e2e2 d4 :|
w:la-de p{\aa} sitt su-ra ben.
w:aj aj aj mitt su-ra ben.
F2d2 d2ed c2c2 | d2c2 d2ed c2c2 | 
c2d2 e2ce d2Bd | c2Ac B2F2 D2B,2 |
F2d2 d2ed c2c2 | d2c2 d2ed c2c2 | 
c2d2 e2ce d2Bd | c2Ac B8 ||
W:Gubben l{\aa}g p{\aa} ugnen, var s{\aa} illa kummen
W:f\"or han inte br\"annvin kunde f{\aa}.
W:Och gumman l{\aa}g i aska', hade en t{\aa}r i flaska',
W:gubben fick inte en t{\aa}r \"and{\aa}.
W:
<end>
<start>
